X:1
T:[ID 4-5rb]
T:[ID 4-5rb]
T:Bezeichnung standardisiert: Menuett Menuet In dieser Quelle auch als: Menuetto
T:Urheber unbekannt Datum in der hier transkribierten schriftlichen Quelle: 1796
C:Urheber unbekannt
C:Datum in der hier transkribierten schriftlichen Quelle: 1796
L:1/8
M:3/4
K:D
V:1 treble 
V:1
 d4 (3fga | .c2 .c2 .c2 | d3 cdB | A2 A2 A2 | B2 B2 B2 | A2 A2 A2 | d2 f2 af | e4 d2 :: g2 e2 c2 | %9
 dcde d2 | g2 e2 c2 | dcdedB | A2 A2 dB | A2 A2 f2 | g2 e2 ce | e4 d2 :| %16

